static/fa/svgs/solid/bezier-curve.svg

<svg xmlns="http://www.w3.org/2000/svg" viewBox="0 0 640 512"><!--! Font Awesome Free 6.1.1 by @fontawesome - https://fontawesome.com License - https://fontawesome.com/license/free (Icons: CC BY 4.0, Fonts: SIL OFL 1.1, Code: MIT License) Copyright 2022 Fonticons, Inc.--><path d="M352 32c26.5 0 48 21.49 48 48v4h118.4c10.4-21.31 32.3-36 57.6-36 35.3 0 64 28.65 64 64 0 35.3-28.7 64-64 64-25.3 0-47.2-14.7-57.6-36h-66.9c58.9 39.6 98.9 104.1 104 180h4.5c26.5 0 48 21.5 48 48v64c0 26.5-21.5 48-48 48h-64c-26.5 0-48-21.5-48-48v-64c0-26.5 21.5-48 48-48h3.3c-5.9-67-48.5-123.4-107.5-149.1-8.7 12.7-23.2 21.1-39.8 21.1h-64c-16.6 0-31.1-8.4-39.8-21.1-59 25.7-101.6 82.1-107.5 149.1h3.3c26.5 0 48 21.5 48 48v64c0 26.5-21.5 48-48 48H80c-26.51 0-48-21.5-48-48v-64c0-26.5 21.49-48 48-48h4.53c5.03-75.9 45.07-140.4 103.97-180h-66.9c-10.4 21.3-32.3 36-57.6 36-35.35 0-64-28.7-64-64 0-35.35 28.65-64 64-64 25.3 0 47.2 14.69 57.6 36H240v-4c0-26.51 21.5-48 48-48h64zm-56 104h48V88h-48v48zM88 376v48h48v-48H88zm464 48v-48h-48v48h48z"/></svg>

<svg xmlns="http://www.w3.org/2000/svg" viewBox="0 0 640 512"><!--! Font Awesome Free 6.1.1 by @fontawesome - https://fontawesome.com License - https://fontawesome.com/license/free (Icons: CC BY 4.0, Fonts: SIL OFL 1.1, Code: MIT License) Copyright 2022 Fonticons, Inc. --><path d="M352 32C378.5 32 400 53.49 400 80V84H518.4C528.8 62.69 550.7 48 576 48C611.3 48 640 76.65 640 112C640 147.3 611.3 176 576 176C550.7 176 528.8 161.3 518.4 140H451.5C510.4 179.6 550.4 244.1 555.5 320H560C586.5 320 608 341.5 608 368V432C608 458.5 586.5 480 560 480H496C469.5 480 448 458.5 448 432V368C448 341.5 469.5 320 496 320H499.3C493.4 253 450.8 196.6 391.8 170.9C383.1 183.6 368.6 192 352 192H288C271.4 192 256.9 183.6 248.2 170.9C189.2 196.6 146.6 253 140.7 320H144C170.5 320 192 341.5 192 368V432C192 458.5 170.5 480 144 480H80C53.49 480 32 458.5 32 432V368C32 341.5 53.49 320 80 320H84.53C89.56 244.1 129.6 179.6 188.5 140H121.6C111.2 161.3 89.3 176 64 176C28.65 176 0 147.3 0 112C0 76.65 28.65 48 64 48C89.3 48 111.2 62.69 121.6 84H240V80C240 53.49 261.5 32 288 32H352zM296 136H344V88H296V136zM88 376V424H136V376H88zM552 424V376H504V424H552z"/></svg>
